brand-logos/OmniFocus_80px.svg

<svg width="80" height="80" version="1.1" viewBox="0 0 80 80" xml:space="preserve" xmlns="http://www.w3.org/2000/svg"><g stroke="#000" stroke-linecap="round" stroke-linejoin="round" stroke-miterlimit="1"><path d="m76 46 1-1v-9l-6-6m-26-26-1-1h-9l-5.8751 6.1212m-25.156 25.849-0.96876 1.0303v9l6.9095 6.0995m27.09 24.9 1 1h9l6-6" display="none" fill="none" stroke-width="2" style="paint-order:markers fill stroke"/><path d="m52 6-42 14-4 8 16 42 8 4 40-13 4-8-14-43z" fill="#fff" fill-opacity=".9973" stroke-width="4" style="paint-order:markers fill stroke"/><path d="m47 19 9 4-12 36-21-8 3-9 12 4z" fill="#fff" fill-opacity=".9973" stroke-width="4" style="paint-order:markers fill stroke"/></g></svg>

<?xml version="1.0" encoding="UTF-8" standalone="no"?>
<!-- Created with Inkscape (http://www.inkscape.org/) -->

<svg
   width="80"
   height="80"
   viewBox="0 0 80 80"
   version="1.1"
   id="svg1"
   xml:space="preserve"
   sodipodi:docname="OmniFocus_80px v4.svg"
   inkscape:version="1.4.3 (0d15f75, 2025-12-25)"
   inkscape:export-filename="reddit_logo_for_pebble_80px.pdc"
   inkscape:export-xdpi="96"
   inkscape:export-ydpi="96"
   xmlns:inkscape="http://www.inkscape.org/namespaces/inkscape"
   xmlns:sodipodi="http://sodipodi.sourceforge.net/DTD/sodipodi-0.dtd"
   xmlns="http://www.w3.org/2000/svg"
   xmlns:svg="http://www.w3.org/2000/svg"><sodipodi:namedview
     id="namedview1"
     pagecolor="#aeaeae"
     bordercolor="#000000"
     borderopacity="0.25"
     inkscape:showpageshadow="2"
     inkscape:pageopacity="0.0"
     inkscape:pagecheckerboard="0"
     inkscape:deskcolor="#d1d1d1"
     inkscape:document-units="px"
     showgrid="true"
     inkscape:zoom="5.5939923"
     inkscape:cx="35.037589"
     inkscape:cy="42.90317"
     inkscape:window-width="2603"
     inkscape:window-height="2007"
     inkscape:window-x="2306"
     inkscape:window-y="1413"
     inkscape:window-maximized="0"
     inkscape:current-layer="svg1"
     showguides="true"><inkscape:grid
       id="grid1"
       units="px"
       originx="0"
       originy="0"
       spacingx="1"
       spacingy="1"
       empcolor="#0099e5"
       empopacity="0.30196078"
       color="#0099e5"
       opacity="0.14901961"
       empspacing="1"
       enabled="true"
       visible="true"
       dotted="true" /><sodipodi:guide
       position="40,60"
       orientation="1,0"
       id="guide1"
       inkscape:locked="false" /><sodipodi:guide
       position="-20,40"
       orientation="0,-1"
       id="guide2"
       inkscape:locked="false" /><sodipodi:guide
       position="75,87"
       orientation="0,-1"
       id="guide3"
       inkscape:locked="false" /><sodipodi:guide
       position="41,39"
       orientation="0.70710678,0.70710678"
       id="guide4"
       inkscape:locked="false"
       inkscape:label=""
       inkscape:color="rgb(0,134,229)" /><sodipodi:guide
       position="82,82"
       orientation="0.70710678,-0.70710678"
       id="guide5"
       inkscape:label=""
       inkscape:locked="false"
       inkscape:color="rgb(0,134,229)" /><sodipodi:guide
       position="40.494571,39.15193"
       orientation="0.8660254,0.5"
       id="guide6"
       inkscape:label=""
       inkscape:locked="false"
       inkscape:color="rgb(0,134,229)" /><sodipodi:guide
       position="39.508836,39.165045"
       orientation="0.8660254,-0.5"
       id="guide7"
       inkscape:label=""
       inkscape:locked="false"
       inkscape:color="rgb(0,134,229)" /><sodipodi:guide
       position="44.752456,37.27307"
       orientation="0.5,0.8660254"
       id="guide8"
       inkscape:label=""
       inkscape:locked="false"
       inkscape:color="rgb(0,134,229)" /><sodipodi:guide
       position="45.113021,37.888151"
       orientation="0.38268343,0.92387953"
       id="guide15"
       inkscape:label=""
       inkscape:locked="false"
       inkscape:color="rgb(0,134,229)" /><sodipodi:guide
       position="41.36951,36.668593"
       orientation="0.92387953,0.38268343"
       id="guide16"
       inkscape:label=""
       inkscape:locked="false"
       inkscape:color="rgb(0,134,229)" /><sodipodi:guide
       position="39.635636,39.128062"
       orientation="0.92387953,-0.38268343"
       id="guide17"
       inkscape:label=""
       inkscape:locked="false"
       inkscape:color="rgb(0,134,229)" /><sodipodi:guide
       position="38.695705,39.449955"
       orientation="0.38268343,-0.92387953"
       id="guide18"
       inkscape:label=""
       inkscape:locked="false"
       inkscape:color="rgb(0,134,229)" /></sodipodi:namedview><defs
     id="defs1" /><path
     style="display:none;fill:none;fill-opacity:0.997297;stroke:#000000;stroke-width:2;stroke-linecap:round;stroke-linejoin:round;stroke-miterlimit:1;stroke-dasharray:none;paint-order:markers fill stroke"
     d="m 76,46 1,-1 V 36 L 71,30 M 45,4 44,3 H 35 L 29.124941,9.121155 M 3.9687648,34.969711 3,36 v 9 l 6.909502,6.099548 M 37,76 l 1,1 h 9 l 6,-6"
     id="path1-7"
     sodipodi:nodetypes="cccccccccccccccc" /><path
     id="path1"
     style="display:inline;opacity:1;fill:#ffffff;fill-opacity:0.997297;stroke:#000000;stroke-width:4;stroke-linecap:round;stroke-linejoin:round;stroke-miterlimit:1;stroke-dasharray:none;paint-order:markers fill stroke"
     d="M 52,6 10,20 6,28 22,70 30,74 70,61 74,53 60,10 Z"
     sodipodi:nodetypes="ccccccccc" /><path
     d="m 47,19 9,4 -12,36 -21,-8 3,-9 12,4 z"
     style="display:inline;fill:#ffffff;fill-opacity:0.997297;stroke:#000000;stroke-width:4;stroke-linecap:round;stroke-linejoin:round;stroke-miterlimit:1;stroke-dasharray:none;paint-order:markers fill stroke"
     id="path1-8" /></svg>
